bernoullicharts/2014_lin_x_4_0_bits.svg

<?xml version="1.0" encoding="utf-8" standalone="no"?>
<!DOCTYPE svg PUBLIC "-//W3C//DTD SVG 1.1//EN"
  "http://www.w3.org/Graphics/SVG/1.1/DTD/svg11.dtd">
<!-- Created with matplotlib (https://matplotlib.org/) -->
<svg height="345.6pt" version="1.1" viewBox="0 0 460.8 345.6" width="460.8pt" xmlns="http://www.w3.org/2000/svg" xmlns:xlink="http://www.w3.org/1999/xlink">
 <defs>
  <style type="text/css">
*{stroke-linecap:butt;stroke-linejoin:round;}
  </style>
 </defs>
 <g id="figure_1">
  <g id="patch_1">
   <path d="M 0 345.6 
L 460.8 345.6 
L 460.8 0 
L 0 0 
z
" style="fill:#ffffff;"/>
  </g>
  <g id="axes_1">
   <g id="patch_2">
    <path d="M 57.6 307.584 
L 414.72 307.584 
L 414.72 41.472 
L 57.6 41.472 
z
" style="fill:#ffffff;"/>
   </g>
   <g id="matplotlib.axis_1">
    <g id="xtick_1">
     <g id="line2d_1">
      <defs>
       <path d="M 0 0 
L 0 3.5 
" id="md510a890c3" style="stroke:#000000;stroke-width:0.8;"/>
      </defs>
      <g>
       <use style="stroke:#000000;stroke-width:0.8;" x="73.643626" xlink:href="#md510a890c3" y="307.584"/>
      </g>
     </g>
     <g id="text_1">
      <text style="font-family:DejaVu Sans;font-size:10px;font-style:normal;font-weight:normal;text-anchor:middle;" transform="rotate(-0, 73.643626, 322.182437)" x="73.643626" y="322.182437">0.000</text>
     </g>
    </g>
    <g id="xtick_2">
     <g id="line2d_2">
      <g>
       <use style="stroke:#000000;stroke-width:0.8;" x="120.918963" xlink:href="#md510a890c3" y="307.584"/>
      </g>
     </g>
     <g id="text_2">
      <text style="font-family:DejaVu Sans;font-size:10px;font-style:normal;font-weight:normal;text-anchor:middle;" transform="rotate(-0, 120.918963, 322.182437)" x="120.918963" y="322.182437">0.025</text>
     </g>
    </g>
    <g id="xtick_3">
     <g id="line2d_3">
      <g>
       <use style="stroke:#000000;stroke-width:0.8;" x="168.194301" xlink:href="#md510a890c3" y="307.584"/>
      </g>
     </g>
     <g id="text_3">
      <text style="font-family:DejaVu Sans;font-size:10px;font-style:normal;font-weight:normal;text-anchor:middle;" transform="rotate(-0, 168.194301, 322.182437)" x="168.194301" y="322.182437">0.050</text>
     </g>
    </g>
    <g id="xtick_4">
     <g id="line2d_4">
      <g>
       <use style="stroke:#000000;stroke-width:0.8;" x="215.469638" xlink:href="#md510a890c3" y="307.584"/>
      </g>
     </g>
     <g id="text_4">
      <text style="font-family:DejaVu Sans;font-size:10px;font-style:normal;font-weight:normal;text-anchor:middle;" transform="rotate(-0, 215.469638, 322.182437)" x="215.469638" y="322.182437">0.075</text>
     </g>
    </g>
    <g id="xtick_5">
     <g id="line2d_5">
      <g>
       <use style="stroke:#000000;stroke-width:0.8;" x="262.744976" xlink:href="#md510a890c3" y="307.584"/>
      </g>
     </g>
     <g id="text_5">
      <text style="font-family:DejaVu Sans;font-size:10px;font-style:normal;font-weight:normal;text-anchor:middle;" transform="rotate(-0, 262.744976, 322.182437)" x="262.744976" y="322.182437">0.100</text>
     </g>
    </g>
    <g id="xtick_6">
     <g id="line2d_6">
      <g>
       <use style="stroke:#000000;stroke-width:0.8;" x="310.020313" xlink:href="#md510a890c3" y="307.584"/>
      </g>
     </g>
     <g id="text_6">
      <text style="font-family:DejaVu Sans;font-size:10px;font-style:normal;font-weight:normal;text-anchor:middle;" transform="rotate(-0, 310.020313, 322.182437)" x="310.020313" y="322.182437">0.125</text>
     </g>
    </g>
    <g id="xtick_7">
     <g id="line2d_7">
      <g>
       <use style="stroke:#000000;stroke-width:0.8;" x="357.29565" xlink:href="#md510a890c3" y="307.584"/>
      </g>
     </g>
     <g id="text_7">
      <text style="font-family:DejaVu Sans;font-size:10px;font-style:normal;font-weight:normal;text-anchor:middle;" transform="rotate(-0, 357.29565, 322.182437)" x="357.29565" y="322.182437">0.150</text>
     </g>
    </g>
    <g id="xtick_8">
     <g id="line2d_8">
      <g>
       <use style="stroke:#000000;stroke-width:0.8;" x="404.570988" xlink:href="#md510a890c3" y="307.584"/>
      </g>
     </g>
     <g id="text_8">
      <text style="font-family:DejaVu Sans;font-size:10px;font-style:normal;font-weight:normal;text-anchor:middle;" transform="rotate(-0, 404.570988, 322.182437)" x="404.570988" y="322.182437">0.175</text>
     </g>
    </g>
    <g id="text_9">
     <text style="font-family:DejaVu Sans;font-size:10px;font-style:normal;font-weight:normal;text-anchor:middle;" transform="rotate(-0, 236.16, 335.860562)" x="236.16" y="335.860562">Probability</text>
    </g>
   </g>
   <g id="matplotlib.axis_2">
    <g id="ytick_1">
     <g id="line2d_9">
      <defs>
       <path d="M 0 0 
L -3.5 0 
" id="m03c1a51c78" style="stroke:#000000;stroke-width:0.8;"/>
      </defs>
      <g>
       <use style="stroke:#000000;stroke-width:0.8;" x="57.6" xlink:href="#m03c1a51c78" y="303.817341"/>
      </g>
     </g>
     <g id="text_10">
      <text style="font-family:DejaVu Sans;font-size:10px;font-style:normal;font-weight:normal;text-anchor:end;" transform="rotate(-0, 50.6, 307.616559)" x="50.6" y="307.616559">0</text>
     </g>
    </g>
    <g id="ytick_2">
     <g id="line2d_10">
      <g>
       <use style="stroke:#000000;stroke-width:0.8;" x="57.6" xlink:href="#m03c1a51c78" y="255.75421"/>
      </g>
     </g>
     <g id="text_11">
      <text style="font-family:DejaVu Sans;font-size:10px;font-style:normal;font-weight:normal;text-anchor:end;" transform="rotate(-0, 50.6, 259.553429)" x="50.6" y="259.553429">100</text>
     </g>
    </g>
    <g id="ytick_3">
     <g id="line2d_11">
      <g>
       <use style="stroke:#000000;stroke-width:0.8;" x="57.6" xlink:href="#m03c1a51c78" y="207.691079"/>
      </g>
     </g>
     <g id="text_12">
      <text style="font-family:DejaVu Sans;font-size:10px;font-style:normal;font-weight:normal;text-anchor:end;" transform="rotate(-0, 50.6, 211.490298)" x="50.6" y="211.490298">200</text>
     </g>
    </g>
    <g id="ytick_4">
     <g id="line2d_12">
      <g>
       <use style="stroke:#000000;stroke-width:0.8;" x="57.6" xlink:href="#m03c1a51c78" y="159.627949"/>
      </g>
     </g>
     <g id="text_13">
      <text style="font-family:DejaVu Sans;font-size:10px;font-style:normal;font-weight:normal;text-anchor:end;" transform="rotate(-0, 50.6, 163.427168)" x="50.6" y="163.427168">300</text>
     </g>
    </g>
    <g id="ytick_5">
     <g id="line2d_13">
      <g>
       <use style="stroke:#000000;stroke-width:0.8;" x="57.6" xlink:href="#m03c1a51c78" y="111.564818"/>
      </g>
     </g>
     <g id="text_14">
      <text style="font-family:DejaVu Sans;font-size:10px;font-style:normal;font-weight:normal;text-anchor:end;" transform="rotate(-0, 50.6, 115.364037)" x="50.6" y="115.364037">400</text>
     </g>
    </g>
    <g id="ytick_6">
     <g id="line2d_14">
      <g>
       <use style="stroke:#000000;stroke-width:0.8;" x="57.6" xlink:href="#m03c1a51c78" y="63.501688"/>
      </g>
     </g>
     <g id="text_15">
      <text style="font-family:DejaVu Sans;font-size:10px;font-style:normal;font-weight:normal;text-anchor:end;" transform="rotate(-0, 50.6, 67.300907)" x="50.6" y="67.300907">500</text>
     </g>
    </g>
    <g id="text_16">
     <text style="font-family:DejaVu Sans;font-size:10px;font-style:normal;font-weight:normal;text-anchor:middle;" transform="rotate(-90, 25.432812, 174.528)" x="25.432812" y="174.528">Average Bits Consumed Per Call</text>
    </g>
   </g>
   <g id="line2d_15">
    <path clip-path="url(#pb0cc198613)" d="M 73.832727 260.224081 
L 92.930053 259.846305 
L 112.02738 260.121226 
L 131.124706 259.700193 
M 169.319358 262.540724 
L 188.416684 254.358457 
L 207.514011 257.228787 
L 226.611337 258.238113 
L 245.708663 250.733535 
L 264.805989 255.292804 
L 283.903316 246.61837 
L 303.000642 250.991154 
L 322.097968 232.11484 
L 341.195294 240.26154 
M 379.389947 226.069459 
L 398.487273 216.901898 
" style="fill:none;stroke:#1f77b4;stroke-linecap:square;stroke-width:1.5;"/>
   </g>
   <g id="line2d_16">
    <path clip-path="url(#pb0cc198613)" d="M 73.832727 251.804382 
L 92.930053 252.921369 
L 112.02738 253.078055 
L 131.124706 244.597796 
L 150.222032 244.377667 
L 169.319358 242.701225 
L 188.416684 246.038729 
L 207.514011 236.334783 
L 226.611337 231.172802 
L 245.708663 225.995442 
L 264.805989 227.655543 
L 283.903316 214.509315 
L 303.000642 221.378498 
L 322.097968 206.925914 
L 341.195294 203.82392 
L 360.29262 192.234938 
L 379.389947 167.332469 
" style="fill:none;stroke:#ff7f0e;stroke-linecap:square;stroke-width:1.5;"/>
   </g>
   <g id="line2d_17">
    <path clip-path="url(#pb0cc198613)" d="M 73.832727 295.488 
L 92.930053 294.371013 
L 112.02738 290.115503 
L 131.124706 290.672074 
L 150.222032 286.178172 
L 169.319358 275.974369 
L 188.416684 275.431256 
L 207.514011 264.398845 
L 226.611337 254.713163 
L 245.708663 242.465716 
L 264.805989 226.914409 
L 283.903316 211.693777 
L 303.000642 199.213704 
" style="fill:none;stroke:#2ca02c;stroke-linecap:square;stroke-width:1.5;"/>
   </g>
   <g id="line2d_18">
    <path clip-path="url(#pb0cc198613)" d="M 73.832727 276.890452 
L 92.930053 277.880553 
L 112.02738 278.514986 
L 131.124706 269.133063 
L 150.222032 269.903034 
L 169.319358 269.103264 
L 188.416684 269.685789 
L 207.514011 269.431054 
M 245.708663 258.118916 
L 264.805989 260.15487 
L 283.903316 250.020279 
L 303.000642 255.371627 
L 322.097968 236.821182 
M 360.29262 226.584696 
M 398.487273 217.168168 
" style="fill:none;stroke:#d62728;stroke-linecap:square;stroke-width:1.5;"/>
   </g>
   <g id="line2d_19">
    <path clip-path="url(#pb0cc198613)" d="M 92.930053 53.568 
L 112.02738 121.28799 
L 131.124706 148.596499 
L 150.222032 168.362942 
L 169.319358 178.800332 
L 188.416684 187.016243 
L 207.514011 190.145153 
L 226.611337 190.723833 
L 245.708663 194.970691 
L 264.805989 191.724507 
L 283.903316 197.15468 
L 303.000642 196.300118 
" style="fill:none;stroke:#9467bd;stroke-linecap:square;stroke-width:1.5;"/>
   </g>
   <g id="patch_3">
    <path d="M 57.6 307.584 
L 57.6 41.472 
" style="fill:none;stroke:#000000;stroke-linecap:square;stroke-linejoin:miter;stroke-width:0.8;"/>
   </g>
   <g id="patch_4">
    <path d="M 414.72 307.584 
L 414.72 41.472 
" style="fill:none;stroke:#000000;stroke-linecap:square;stroke-linejoin:miter;stroke-width:0.8;"/>
   </g>
   <g id="patch_5">
    <path d="M 57.6 307.584 
L 414.72 307.584 
" style="fill:none;stroke:#000000;stroke-linecap:square;stroke-linejoin:miter;stroke-width:0.8;"/>
   </g>
   <g id="patch_6">
    <path d="M 57.6 41.472 
L 414.72 41.472 
" style="fill:none;stroke:#000000;stroke-linecap:square;stroke-linejoin:miter;stroke-width:0.8;"/>
   </g>
   <g id="text_17">
    <text style="font-family:DejaVu Sans;font-size:12px;font-style:normal;font-weight:normal;text-anchor:middle;" transform="rotate(-0, 236.16, 35.472)" x="236.16" y="35.472">Avg. Bits Consumed</text>
   </g>
   <g id="legend_1">
    <g id="patch_7">
     <path d="M 233.6325 122.862625 
L 407.72 122.862625 
Q 409.72 122.862625 409.72 120.862625 
L 409.72 48.472 
Q 409.72 46.472 407.72 46.472 
L 233.6325 46.472 
Q 231.6325 46.472 231.6325 48.472 
L 231.6325 120.862625 
Q 231.6325 122.862625 233.6325 122.862625 
z
" style="fill:#ffffff;opacity:0.8;stroke:#cccccc;stroke-linejoin:miter;"/>
    </g>
    <g id="line2d_20">
     <path d="M 235.6325 54.570438 
L 255.6325 54.570438 
" style="fill:none;stroke:#1f77b4;stroke-linecap:square;stroke-width:1.5;"/>
    </g>
    <g id="line2d_21"/>
    <g id="text_18">
     <text style="font-family:DejaVu Sans;font-size:10px;font-style:normal;font-weight:normal;text-anchor:start;" transform="rotate(-0, 263.6325, 58.070438)" x="263.6325" y="58.070438">2014 Lin. x*4.0</text>
    </g>
    <g id="line2d_22">
     <path d="M 235.6325 69.248563 
L 255.6325 69.248563 
" style="fill:none;stroke:#ff7f0e;stroke-linecap:square;stroke-width:1.5;"/>
    </g>
    <g id="line2d_23"/>
    <g id="text_19">
     <text style="font-family:DejaVu Sans;font-size:10px;font-style:normal;font-weight:normal;text-anchor:start;" transform="rotate(-0, 263.6325, 72.748563)" x="263.6325" y="72.748563">2016 Lin. x*4.0</text>
    </g>
    <g id="line2d_24">
     <path d="M 235.6325 83.926688 
L 255.6325 83.926688 
" style="fill:none;stroke:#2ca02c;stroke-linecap:square;stroke-width:1.5;"/>
    </g>
    <g id="line2d_25"/>
    <g id="text_20">
     <text style="font-family:DejaVu Sans;font-size:10px;font-style:normal;font-weight:normal;text-anchor:start;" transform="rotate(-0, 263.6325, 87.426688)" x="263.6325" y="87.426688">Low-Mean Lin. x*4.0</text>
    </g>
    <g id="line2d_26">
     <path d="M 235.6325 98.604813 
L 255.6325 98.604813 
" style="fill:none;stroke:#d62728;stroke-linecap:square;stroke-width:1.5;"/>
    </g>
    <g id="line2d_27"/>
    <g id="text_21">
     <text style="font-family:DejaVu Sans;font-size:10px;font-style:normal;font-weight:normal;text-anchor:start;" transform="rotate(-0, 263.6325, 102.104813)" x="263.6325" y="102.104813">2019x*4.0</text>
    </g>
    <g id="line2d_28">
     <path d="M 235.6325 113.282938 
L 255.6325 113.282938 
" style="fill:none;stroke:#9467bd;stroke-linecap:square;stroke-width:1.5;"/>
    </g>
    <g id="line2d_29"/>
    <g id="text_22">
     <text style="font-family:DejaVu Sans;font-size:10px;font-style:normal;font-weight:normal;text-anchor:start;" transform="rotate(-0, 263.6325, 116.782938)" x="263.6325" y="116.782938">Low-Mean M=0.49999 x*4.0</text>
    </g>
   </g>
  </g>
 </g>
 <defs>
  <clipPath id="pb0cc198613">
   <rect height="266.112" width="357.12" x="57.6" y="41.472"/>
  </clipPath>
 </defs>
</svg>

<svg height="460.8" viewBox="0 0 460.8 345.6" width="614.4" xmlns="http://www.w3.org/2000/svg" xmlns:xlink="http://www.w3.org/1999/xlink"><defs><style>*{stroke-linecap:butt;stroke-linejoin:round}</style></defs><g id="figure_1"><path d="M0 345.6h460.8V0H0z" fill="#fff" id="patch_1"/><g id="axes_1"><path d="M57.6 307.584h357.12V41.472H57.6z" fill="#fff" id="patch_2"/><g id="matplotlib.axis_1"><g id="xtick_1"><g id="line2d_1"><defs><path d="M0 0v3.5" id="md510a890c3" stroke="#000" stroke-width=".8"/></defs><use x="73.644" xlink:href="#md510a890c3" y="307.584" stroke="#000" stroke-width=".8"/></g><text x="73.644" y="322.182" font-family="DejaVu Sans" font-size="10" font-weight="400" text-anchor="middle" id="text_1">0.000</text></g><g id="xtick_2"><use x="120.919" xlink:href="#md510a890c3" y="307.584" stroke="#000" stroke-width=".8" id="line2d_2"/><text x="120.919" y="322.182" font-family="DejaVu Sans" font-size="10" font-weight="400" text-anchor="middle" id="text_2">0.025</text></g><g id="xtick_3"><use x="168.194" xlink:href="#md510a890c3" y="307.584" stroke="#000" stroke-width=".8" id="line2d_3"/><text x="168.194" y="322.182" font-family="DejaVu Sans" font-size="10" font-weight="400" text-anchor="middle" id="text_3">0.050</text></g><g id="xtick_4"><use x="215.47" xlink:href="#md510a890c3" y="307.584" stroke="#000" stroke-width=".8" id="line2d_4"/><text x="215.47" y="322.182" font-family="DejaVu Sans" font-size="10" font-weight="400" text-anchor="middle" id="text_4">0.075</text></g><g id="xtick_5"><use x="262.745" xlink:href="#md510a890c3" y="307.584" stroke="#000" stroke-width=".8" id="line2d_5"/><text x="262.745" y="322.182" font-family="DejaVu Sans" font-size="10" font-weight="400" text-anchor="middle" id="text_5">0.100</text></g><g id="xtick_6"><use x="310.02" xlink:href="#md510a890c3" y="307.584" stroke="#000" stroke-width=".8" id="line2d_6"/><text x="310.02" y="322.182" font-family="DejaVu Sans" font-size="10" font-weight="400" text-anchor="middle" id="text_6">0.125</text></g><g id="xtick_7"><use x="357.296" xlink:href="#md510a890c3" y="307.584" stroke="#000" stroke-width=".8" id="line2d_7"/><text x="357.296" y="322.182" font-family="DejaVu Sans" font-size="10" font-weight="400" text-anchor="middle" id="text_7">0.150</text></g><g id="xtick_8"><use x="404.571" xlink:href="#md510a890c3" y="307.584" stroke="#000" stroke-width=".8" id="line2d_8"/><text x="404.571" y="322.182" font-family="DejaVu Sans" font-size="10" font-weight="400" text-anchor="middle" id="text_8">0.175</text></g><text x="236.16" y="335.861" font-family="DejaVu Sans" font-size="10" font-weight="400" text-anchor="middle" id="text_9">Probability</text></g><g id="matplotlib.axis_2"><g id="ytick_1"><g id="line2d_9"><defs><path d="M0 0h-3.5" id="m03c1a51c78" stroke="#000" stroke-width=".8"/></defs><use x="57.6" xlink:href="#m03c1a51c78" y="303.817" stroke="#000" stroke-width=".8"/></g><text x="50.6" y="307.617" font-family="DejaVu Sans" font-size="10" font-weight="400" text-anchor="end" id="text_10">0</text></g><g id="ytick_2"><use x="57.6" xlink:href="#m03c1a51c78" y="255.754" stroke="#000" stroke-width=".8" id="line2d_10"/><text x="50.6" y="259.553" font-family="DejaVu Sans" font-size="10" font-weight="400" text-anchor="end" id="text_11">100</text></g><g id="ytick_3"><use x="57.6" xlink:href="#m03c1a51c78" y="207.691" stroke="#000" stroke-width=".8" id="line2d_11"/><text x="50.6" y="211.49" font-family="DejaVu Sans" font-size="10" font-weight="400" text-anchor="end" id="text_12">200</text></g><g id="ytick_4"><use x="57.6" xlink:href="#m03c1a51c78" y="159.628" stroke="#000" stroke-width=".8" id="line2d_12"/><text x="50.6" y="163.427" font-family="DejaVu Sans" font-size="10" font-weight="400" text-anchor="end" id="text_13">300</text></g><g id="ytick_5"><use x="57.6" xlink:href="#m03c1a51c78" y="111.565" stroke="#000" stroke-width=".8" id="line2d_13"/><text x="50.6" y="115.364" font-family="DejaVu Sans" font-size="10" font-weight="400" text-anchor="end" id="text_14">400</text></g><g id="ytick_6"><use x="57.6" xlink:href="#m03c1a51c78" y="63.502" stroke="#000" stroke-width=".8" id="line2d_14"/><text x="50.6" y="67.301" font-family="DejaVu Sans" font-size="10" font-weight="400" text-anchor="end" id="text_15">500</text></g><text transform="rotate(-90 25.433 174.528)" x="25.433" y="174.528" font-family="DejaVu Sans" font-size="10" font-weight="400" text-anchor="middle" id="text_16">Average Bits Consumed Per Call</text></g><path clip-path="url(#pb0cc198613)" d="M73.833 260.224l19.097-.378 19.097.275 19.098-.42m38.194 2.84l19.098-8.183 19.097 2.87 19.097 1.01 19.098-7.504 19.097 4.559 19.097-8.675 19.098 4.373 19.097-18.876 19.097 8.147m38.195-14.193l19.097-9.167" fill="none" stroke="#1f77b4" stroke-linecap="square" stroke-width="1.5" id="line2d_15"/><path clip-path="url(#pb0cc198613)" d="M73.833 251.804l19.097 1.117 19.097.157 19.098-8.48 19.097-.22 19.097-1.677 19.098 3.338 19.097-9.704 19.097-5.162 19.098-5.178 19.097 1.66 19.097-13.146 19.098 6.87 19.097-14.453 19.097-3.102 19.098-11.59 19.097-24.902" fill="none" stroke="#ff7f0e" stroke-linecap="square" stroke-width="1.5" id="line2d_16"/><path clip-path="url(#pb0cc198613)" d="M73.833 295.488l19.097-1.117 19.097-4.255 19.098.556 19.097-4.494 19.097-10.204 19.098-.543 19.097-11.032 19.097-9.686 19.098-12.247 19.097-15.552 19.097-15.22 19.098-12.48" fill="none" stroke="#2ca02c" stroke-linecap="square" stroke-width="1.5" id="line2d_17"/><path clip-path="url(#pb0cc198613)" d="M73.833 276.89l19.097.99 19.097.635 19.098-9.382 19.097.77 19.097-.8 19.098.583 19.097-.255m38.195-11.312l19.097 2.036 19.097-10.135 19.098 5.352 19.097-18.55M398.487 217.167" fill="none" stroke="#d62728" stroke-linecap="square" stroke-width="1.5" id="line2d_18"/><path clip-path="url(#pb0cc198613)" d="M92.93 53.568l19.097 67.72 19.098 27.308 19.097 19.767 19.097 10.437 19.098 8.216 19.097 3.13 19.097.578 19.098 4.247 19.097-3.246 19.097 5.43 19.098-.855" fill="none" stroke="#9467bd" stroke-linecap="square" stroke-width="1.5" id="line2d_19"/><path d="M57.6 307.584V41.472" fill="none" stroke="#000" stroke-linecap="square" stroke-width=".8" id="patch_3"/><path d="M414.72 307.584V41.472" fill="none" stroke="#000" stroke-linecap="square" stroke-width=".8" id="patch_4"/><path d="M57.6 307.584h357.12" fill="none" stroke="#000" stroke-linecap="square" stroke-width=".8" id="patch_5"/><path d="M57.6 41.472h357.12" fill="none" stroke="#000" stroke-linecap="square" stroke-width=".8" id="patch_6"/><text x="236.16" y="35.472" font-family="DejaVu Sans" font-size="12" font-weight="400" text-anchor="middle" id="text_17">Avg. Bits Consumed</text><g id="legend_1"><path d="M233.632 122.863H407.72q2 0 2-2V48.472q0-2-2-2H233.632q-2 0-2 2v72.39q0 2 2 2z" fill="#fff" opacity=".8" stroke="#ccc" id="patch_7"/><path d="M235.632 54.57h20" fill="none" stroke="#1f77b4" stroke-linecap="square" stroke-width="1.5" id="line2d_20"/><text x="263.632" y="58.07" font-family="DejaVu Sans" font-size="10" font-weight="400" id="text_18">2014 Lin. x*4.0</text><path d="M235.632 69.249h20" fill="none" stroke="#ff7f0e" stroke-linecap="square" stroke-width="1.5" id="line2d_22"/><text x="263.632" y="72.749" font-family="DejaVu Sans" font-size="10" font-weight="400" id="text_19">2016 Lin. x*4.0</text><path d="M235.632 83.927h20" fill="none" stroke="#2ca02c" stroke-linecap="square" stroke-width="1.5" id="line2d_24"/><text x="263.632" y="87.427" font-family="DejaVu Sans" font-size="10" font-weight="400" id="text_20">Low-Mean Lin. x*4.0</text><path d="M235.632 98.605h20" fill="none" stroke="#d62728" stroke-linecap="square" stroke-width="1.5" id="line2d_26"/><text x="263.632" y="102.105" font-family="DejaVu Sans" font-size="10" font-weight="400" id="text_21">2019x*4.0</text><path d="M235.632 113.283h20" fill="none" stroke="#9467bd" stroke-linecap="square" stroke-width="1.5" id="line2d_28"/><text x="263.632" y="116.783" font-family="DejaVu Sans" font-size="10" font-weight="400" id="text_22">Low-Mean M=0.49999 x*4.0</text></g></g></g><defs><clipPath id="pb0cc198613"><path d="M57.6 41.472h357.12v266.112H57.6z"/></clipPath></defs></svg>
